X:280
T: Pensioner's Follies
S: "The Ted Furey Collection of Irish Traditional Tunes"
Z: B.Black
L: 1/8
M: 9/8
R: slip jig
K: G
F | DGG GAG FGA | BGB cAB cde | ded cAG FGA |\
BGB cAF G2 :|
B/c/ | ded cAG FGA | ded cAB cde | ded cAG FGA |\
BGB cAF G2 B |
ded cAG FGA | ded cAB cde | fed cAG FGA |\
BGB cAF G2 ||
